X: 1
T: O Little Town of Bethlehem
C: Words: Phillips Brooks, 1867.  Music: 'St. Louis' Lewis H. Redner, 1868.  Setting: PD from Lutheran Worship, 1982.
C: copyright: public domain.  This score is a part of the Open Hymnal Project, 2005 Revision.
S: Music source: 'Lutheran Worship' Hymnal, 1982 Hymn 60.
M: 4/4 % time signature
L: 1/4 % default length
%%staves (S1V1 S1V2) | (S2V1 S2V2) 
V: S1V1 clef=treble 
V: S1V2 
V: S2V1 clef=bass 
V: S2V2 
K: F % key signature
%
%%MIDI program 1 0 % Piano 1
%%MIDI program 2 0 % Piano 1
%%MIDI program 3 0 % Piano 1
%%MIDI program 4 0 % Piano 1
%
% 1
[V: S1V1] [Q:1/4=100] [CA] | [CA] [CA] [=B,^G] [CA] | .('.([_Ec] [DB])) [B,D] [DG] | [CF] E/F/ [CG] C | [C3A3]
w: 1.~O lit- tle town of Beth- le- hem, how still we * see thee lie! 
w: 2.~For Christ is born of Ma- * ry, and ga- thered * all a- bove, 
w: 3.~How si- lent- ly, how si- lent- ly, the won- drous * Gift is giv'n; 
w: 4.~Where child- ren pure and hap- * py pray to the * bless- èd Child, 
w: 5.O ho- ly Child of Beth- le- hem, des- cend to * us, we pray; 
[V: S1V2]  x | x4 | x4 | x C x C | x3
[V: S2V1]  F, | F, F, F, F, | x4 | x G,/A,/ x2 | x3
[V: S2V2]  F, | F, F, F, F, | .(,.([B,,^F,] [B,,G,])) [B,,G,] [B,,B,] | [C,A,] C, [C,B,] [C,B,] | [F,,3A,3]
% 5
[V: S1V1]  [CA] | [CA] [FA] [^Fd] [Fc] | [Gc] [DB] [B,D] [DG] | [CF] E/F/ [EA] [EG] | F3
w: A- bove thy deep and dream- less sleep the si- lent * stars go by. 
w: While mor- tals sleep, the an- gels keep their watch of * won- d'ring love. 
w: So God im- parts to hu- man hearts the bless- ings * of His Heav'n. 
w: Where mi- ser- y cries out to Thee, Son of the * mo- ther mild; 
w: Cast out our sin, and en- ter in, be born in * us to- day. 
[V: S1V2]  x | x4 | x4 | x C x2 | F3
[V: S2V1]  F, | F, x3 | x4 | A, ^G,/A,/ x2 | x3
[V: S2V2]  F, | F, [_E,A,] [D,A,] [D,D] | [G,D] [G,D] [G,,D] [B,,B,] | C,3/2 C,/ [C,C] [C,B,] | [F,3A,3]
% 9
[V: S1V1]  [FA] | [FA] [FA] [EG] [DF] | [^C2E2] [CE] [CE] | D [^CE] [DF] [DG] | [^C3A3]
w: Yet in thy dark streets shin- eth the ev- er- last- ing Light; 
w: O morn- ing stars to- ge- ther, pro- claim the ho- ly birth, 
w: No ear may hear His com- ing, but in this world of sin, 
w: Where char- it- y stands watch- ing and faith holds wide the door, 
w: We hear the Christ- mas an- gels the great glad tid- ings tell; 
[V: S1V2]  x | x4 | x4 | D x3 | x3
[V: S2V1]  x | x4 | x4 | x4 | x3
[V: S2V2]  [F,C] | [F,C] [F,A,] [G,B,] [^G,=B,] | [A,2^C2] [A,C] [A,,A,] | [F,A,] [E,A,] [D,A,] [B,,G,] | [A,,3E,3]
% 13
[V: S1V1]  [=CA] | [CA] [CA] [=B,^G] [CA] | [Dc] [DB] [B,D] d | [Fc] [=B,F] [C3/2A3/2] [_B,/G/] | [A,3F3] |]
w: The hopes and fears of all the years are met in thee to- night. 
w: And prais- es sing to God the King, and peace to men on earth! 
w: Where meek souls will re- ceive Him still, the dear Christ en- ters in. 
w: The dark night wakes, the glo- ry breaks, and Christ- mas comes once more. 
w: O come to us, a- bide with us, our Lord Em- man- u- el! 
[V: S1V2]  x | x4 | x3 D/E/ | x4 | x3 |]
[V: S2V1]  x | x F, F, F, | x4 | x G,/F,/ x2 | x3 |]
[V: S2V2]  [F,,F,] | [F,,F,] F, F, F, | [B,,^F,] [B,,G,] [B,,G,] [B,,B,] | [C,A,] D, [C,3/2F,3/2] [C,/E,/] | [F,,3F,3] |]
% 18
